src/icons/solid/navigation/arrow-up.svg

<svg width="24" height="24" viewBox="0 0 24 24" fill="none" xmlns="http://www.w3.org/2000/svg">
<g clip-path="url(#clip0_4555_433)">
<path d="M22.6712 11.78L13.695 1.73333C13.2591 1.29386 12.6714 1.03207 12.0486 1C11.4258 1.03207 10.8381 1.29386 10.4022 1.73333L1.42594 11.8167C1.28934 11.9399 1.18077 12.0903 1.10738 12.2578C1.03399 12.4254 0.997438 12.6064 1.00014 12.7889C1.00284 12.9714 1.04473 13.1512 1.12305 13.3166C1.20137 13.482 1.31435 13.6292 1.45454 13.7484C1.59473 13.8677 1.75897 13.9563 1.93643 14.0085C2.1139 14.0607 2.30057 14.0753 2.48416 14.0513C2.66775 14.0273 2.84409 13.9652 3.00159 13.8692C3.15909 13.7731 3.29416 13.6453 3.39792 13.4942L10.3278 5.73917C10.3591 5.70325 10.401 5.6778 10.4476 5.6663C10.4943 5.65481 10.5434 5.65785 10.5882 5.675C10.6315 5.69148 10.6689 5.72036 10.6954 5.75794C10.7219 5.79552 10.7364 5.84006 10.737 5.88583V21.7075C10.737 21.8772 10.771 22.0453 10.8369 22.2021C10.9028 22.3589 10.9994 22.5014 11.1212 22.6214C11.243 22.7415 11.3876 22.8367 11.5467 22.9016C11.7058 22.9666 11.8764 23 12.0486 23C12.2208 23 12.3914 22.9666 12.5505 22.9016C12.7096 22.8367 12.8542 22.7415 12.976 22.6214C13.0978 22.5014 13.1944 22.3589 13.2603 22.2021C13.3262 22.0453 13.3601 21.8772 13.3601 21.7075V5.88583C13.3607 5.84006 13.3752 5.79552 13.4018 5.75794C13.4283 5.72036 13.4656 5.69148 13.509 5.675C13.5538 5.65785 13.6029 5.65481 13.6495 5.6663C13.6962 5.6778 13.7381 5.70325 13.7694 5.73917L20.6993 13.4942C20.8135 13.6218 20.9521 13.726 21.1071 13.8008C21.2622 13.8756 21.4307 13.9196 21.603 13.9302C21.7753 13.9408 21.9481 13.9179 22.1114 13.8628C22.2748 13.8076 22.4255 13.7213 22.555 13.6088C22.6844 13.4962 22.7902 13.3596 22.8661 13.2068C22.942 13.054 22.9866 12.8879 22.9974 12.7181C23.0082 12.5483 22.985 12.378 22.929 12.2171C22.873 12.0561 22.7854 11.9076 22.6712 11.78Z" fill="#3C3B44"/>
</g>
<defs>
<clipPath id="clip0_4555_433">
<rect width="24" height="24" fill="white"/>
</clipPath>
</defs>
</svg>

<svg xmlns="http://www.w3.org/2000/svg" width="24" height="24" fill="none" viewBox="0 0 24 24"><g clip-path="url(#a)"><path fill="currentColor" d="M22.671 11.78 13.695 1.733A2.5 2.5 0 0 0 12.049 1a2.5 2.5 0 0 0-1.647.733L1.426 11.817a1.3 1.3 0 0 0-.426.972 1.28 1.28 0 0 0 .455.96 1.32 1.32 0 0 0 1.03.302 1.32 1.32 0 0 0 .913-.557l6.93-7.755a.23.23 0 0 1 .26-.064.23.23 0 0 1 .149.21v15.823a1.28 1.28 0 0 0 .384.913 1.3 1.3 0 0 0 .928.379 1.33 1.33 0 0 0 .927-.379 1.3 1.3 0 0 0 .384-.913V5.886a.23.23 0 0 1 .149-.211.24.24 0 0 1 .26.064l6.93 7.755a1.3 1.3 0 0 0 .904.436 1.34 1.34 0 0 0 .952-.321 1.3 1.3 0 0 0 .442-.89 1.28 1.28 0 0 0-.326-.939"/></g><defs><clipPath id="a"><path fill="currentColor" d="M0 0h24v24H0z"/></clipPath></defs></svg>
